X:0661
T:The merry Lads of Foss.
M:C|
L:1/8
Q:1/2=104
I: :: ||
N:Aird prints bar 4 as |fdef d/d/d d2:| (no variant)
Z:Jack Campin * www.campin.me.uk * 2009
K:D
  FA A/A/A TB2Ac| dBAF GEEG| FA A/A/A TB2Ag|fdef d/d/d [1 d2:|\
                                                       [2 d ||
g|f2 df     aeeg| f2df eBBg|Tf2 df     aeeg|faef d/d/d    df |
 Tf2 df     aeeg|Tf2df eBBg|Tf2 df     aeef|fdef d/d/d    d2|]
<end>
<start>
